!!!Rep U0545
!!!Isim(Name): Ben de Yetim
!!!Yore(Region): Diyarbakır
!!!Makam: Rast
!!!Arizalar(Accidentals): b-2
!!!Usul: 2/4
**kern	**Dcent
*staff1	*.
*clefG2	*.
*k[b-]	*.
*M2/4	*.
16dd	0
16ee	0
16ff	0
16gg	0
16aa	0
16gg	0
16ff	0
16aa	0
=1	=1
4gg	0
4gg	0
=2:!	=2:!
16.dd	0
32ee	0
16dd	0
16cc	0
16.cc	0
32dd-	0
16cc	0
16b-	50
=3	=3
16.b-	50
32cc	0
16b-	50
16a	0
16.a	0
32b-	50
16a	0
16g	0
=4	=4
!!linebreak:default
4g	0
4g	0
=5	=5
4cc	0
8cc	0
8b-	50
=6	=6
8cc	0
8dd	0
16ee	0
16dd	0
16cc	0
16b-	50
=7	=7
8a	0
4b-	50
8a	0
=8	=8
8a	0
8b-	50
8cc	0
8dd	0
=9	=9
!!linebreak:default
16cc	0
16b-	50
16b-	50
16a	0
4a	0
=10	=10
4dd	0
4ee	0
=11	=11
16cc	0
16b-	50
16a	0
16b-	50
16dd	0
16cc	0
16b-	50
16a	0
=12	=12
2g	0
=13	=13
*MX/X	*.
8aaQ	0
4aaQ	0
8ggQ	0
8ggQ	0
4aaQ	0
8ffQ	0
8aaQ	0
8ggQ	0
4ggQ;	0
*-	*-
!! Uzun Hava Humdrum Bilgi Bankasi (Uzun Hava Humdrum Database)
!! 
!! Sertan Senturk, Parag Chordia & Erdal Tugcular
!! Georgia Tech Center for Music Technology, 2011
